X: 5
T: Green Linnet, The 
M: 4/4
L: 1/8
R: reel
K: Amix
|: B/A/G |\
A2 ae cBAc | BAGB gdBc | A2 ae cBAc | BGdB cA :|
|: GB |\
ABcd ec c/B/A | BGdB gdBG |[1 A2 B/c/d e2 c/B/A | BGdB cA :|[2 AcBd cedf | edcB A2 |]
